src/assets/filled/ArrowSquareUp.svg

<?xml version="1.0" encoding="UTF-8"?>
<svg width="24" height="24" viewBox="0 0 24 24" xmlns="http://www.w3.org/2000/svg">
 <path d="m16.19 2h-8.38c-3.64 0-5.81 2.17-5.81 5.81v8.37c0 3.65 2.17 5.82 5.81 5.82h8.37c3.64 0 5.81-2.17 5.81-5.81v-8.38c0.01-3.64-2.16-5.81-5.8-5.81zm-0.13 12c-0.15 0.15-0.34 0.22-0.53 0.22s-0.38-0.08-0.53-0.22l-3-3-3 3c-0.29 0.29-0.77 0.29-1.06 0s-0.29-0.77 0-1.06l3.53-3.53c0.29-0.29 0.77-0.29 1.06 0l3.53 3.53c0.29 0.29 0.29 0.76 0 1.06z"/>
</svg>

<svg width="24" height="24" viewBox="0 0 24 24"  xmlns="http://www.w3.org/2000/svg">
<path d="M16.19 2H7.81C4.17 2 2 4.17 2 7.81V16.18C2 19.83 4.17 22 7.81 22H16.18C19.82 22 21.99 19.83 21.99 16.19V7.81C22 4.17 19.83 2 16.19 2ZM16.06 14C15.91 14.15 15.72 14.22 15.53 14.22C15.34 14.22 15.15 14.14 15 14L12 11L9 14C8.71 14.29 8.23 14.29 7.94 14C7.65 13.71 7.65 13.23 7.94 12.94L11.47 9.41C11.76 9.12 12.24 9.12 12.53 9.41L16.06 12.94C16.35 13.23 16.35 13.7 16.06 14Z" />
</svg>
